!! 00000] TT[WS
!!!OTL: Gu changgong
!!!ARE: Asia, China, Shanxi Yuanping
!! Ethnic Group: Han
!! WII, 100 (2)
!!!SCT: J0545
!!!YEM: Copyright 1995, estate of Helmut Schaffrath.
**kern
*ICvox
*Ivox
*M2/4
*k[f#c#g#]
*A:
{16cc#
8ee
16cc#
4b
=1
16cc#
16ee
16cc#
16b
4a
=2
16a
16b
8cc#
16ee
16cc#
16b
16a
=3
8b
16f#
16e
4c#}
=4
{8e
16e
16f#
16a
16cc#
16b
16a
=5
16b
16b
16a
16e
8f#
8f#}
=6
{16b
8b
16cc#
16b
16cc#
16b
16a
=7
16f#
16a
16e
16f#
8a
16g#
16f#
=8
16c#
16f#
16e
16c#
4B}
==
!!!AGN: Xiaodiao. Qingge, Sichun
!!!ONB: ESAC (Essen Associative Code) Database: CHINA
!!!AMT: simple duple
!!!AIN: vox
!!!EED: Helmut Schaffrath
!!!EEV: 1.0
*-
